flaticon/seo-and-analytics/network.svg

<svg xmlns="http://www.w3.org/2000/svg" width="32" height="32" viewBox="0 0 24 24">
    <path d="M8.640625 1.601562L2.558594 1.601562C2.039062 1.601562 1.601562 2.039062 1.601562 2.558594L1.601562 6.238281C1.601562 6.761719 2.039062 7.199219 2.558594 7.199219L8.640625 7.199219C9.160156 7.199219 9.601562 6.761719 9.601562 6.238281L9.601562 2.558594C9.601562 2.039062 9.160156 1.601562 8.640625 1.601562zM8.800781 6.238281C8.800781 6.320312 8.71875 6.398438 8.640625 6.398438L2.558594 6.398438C2.480469 6.398438 2.398438 6.320312 2.398438 6.238281L2.398438 2.558594C2.398438 2.480469 2.480469 2.398438 2.558594 2.398438L8.640625 2.398438C8.71875 2.398438 8.800781 2.480469 8.800781 2.558594zM21.441406 14.398438L15.359375 14.398438C14.839844 14.398438 14.398438 14.839844 14.398438 15.359375L14.398438 19.039062C14.398438 19.558594 14.839844 20 15.359375 20L21.441406 20C21.960938 20 22.398438 19.558594 22.398438 19.039062L22.398438 15.359375C22.398438 14.839844 21.960938 14.398438 21.441406 14.398438zM21.601562 19.039062C21.601562 19.121094 21.519531 19.199219 21.441406 19.199219L15.359375 19.199219C15.28125 19.199219 15.199219 19.121094 15.199219 19.039062L15.199219 15.359375C15.199219 15.28125 15.28125 15.199219 15.359375 15.199219L21.441406 15.199219C21.519531 15.199219 21.601562 15.28125 21.601562 15.359375zM21.601562 19.039062"/>
    <path d="M22.960938 12.800781L20 12.800781 20 11.601562C20 11.359375 19.839844 11.199219 19.601562 11.199219 19.359375 11.199219 19.199219 11.359375 19.199219 11.601562L19.199219 12.800781 13.839844 12.800781C13.28125 12.800781 12.800781 13.28125 12.800781 13.839844L12.800781 20.558594C12.800781 21.121094 13.28125 21.601562 13.839844 21.601562L15.601562 21.601562 15.601562 23.078125C15.601562 23.601562 16 24 16.480469 24L20.28125 24C20.800781 24 21.199219 23.601562 21.199219 23.078125L21.199219 21.601562 22.960938 21.601562C23.519531 21.601562 24 21.121094 24 20.558594L24 13.839844C24 13.28125 23.519531 12.800781 22.960938 12.800781zM20.441406 23.078125C20.441406 23.160156 20.359375 23.199219 20.320312 23.199219L16.519531 23.199219C16.441406 23.199219 16.398438 23.121094 16.398438 23.078125L16.398438 21.601562 20.441406 21.601562zM23.199219 20.558594C23.199219 20.679688 23.078125 20.800781 22.960938 20.800781L13.839844 20.800781C13.71875 20.800781 13.601562 20.679688 13.601562 20.558594L13.601562 13.839844C13.601562 13.71875 13.71875 13.601562 13.839844 13.601562L22.960938 13.601562C23.078125 13.601562 23.199219 13.71875 23.199219 13.839844zM5.601562 15.601562C5.839844 15.601562 6 15.441406 6 15.199219L6 14C6 13.761719 5.839844 13.601562 5.601562 13.601562 5.359375 13.601562 5.199219 13.761719 5.199219 14L5.199219 15.199219C5.199219 15.441406 5.359375 15.601562 5.601562 15.601562zM11.601562 19.199219L10.398438 19.199219C10.160156 19.199219 10 19.359375 10 19.601562 10 19.839844 10.160156 20 10.398438 20L11.601562 20C11.839844 20 12 19.839844 12 19.601562 12 19.359375 11.839844 19.199219 11.601562 19.199219zM8.800781 19.199219L7.5625 19.199219C7.40625 18.40625 6.792969 17.792969 6 17.640625L6 16.800781C6 16.558594 5.839844 16.398438 5.601562 16.398438 5.359375 16.398438 5.199219 16.558594 5.199219 16.800781L5.199219 17.640625C4.277344 17.820312 3.601562 18.617188 3.601562 19.601562 3.601562 20.71875 4.480469 21.601562 5.601562 21.601562 6.582031 21.601562 7.378906 20.921875 7.5625 20L8.800781 20C9.039062 20 9.199219 19.839844 9.199219 19.601562 9.199219 19.359375 9.039062 19.199219 8.800781 19.199219zM5.601562 20.800781C4.921875 20.800781 4.398438 20.28125 4.398438 19.601562 4.398438 18.921875 4.921875 18.398438 5.601562 18.398438 6.28125 18.398438 6.800781 18.921875 6.800781 19.601562 6.800781 20.28125 6.28125 20.800781 5.601562 20.800781zM16.800781 4.398438L17.640625 4.398438C17.792969 5.195312 18.40625 5.804688 19.199219 5.960938L19.199219 7.199219C19.199219 7.441406 19.359375 7.601562 19.601562 7.601562 19.839844 7.601562 20 7.441406 20 7.199219L20 5.960938C20.921875 5.78125 21.601562 4.984375 21.601562 4 21.601562 2.878906 20.71875 2 19.601562 2 18.617188 2 17.820312 2.675781 17.636719 3.601562L16.800781 3.601562C16.558594 3.601562 16.398438 3.761719 16.398438 4 16.398438 4.238281 16.558594 4.398438 16.800781 4.398438zM19.601562 2.800781C20.28125 2.800781 20.800781 3.320312 20.800781 4 20.800781 4.679688 20.28125 5.199219 19.601562 5.199219 18.921875 5.199219 18.398438 4.679688 18.398438 4 18.398438 3.320312 18.921875 2.800781 19.601562 2.800781zM14 4.398438L15.199219 4.398438C15.441406 4.398438 15.601562 4.238281 15.601562 4 15.601562 3.761719 15.441406 3.601562 15.199219 3.601562L14 3.601562C13.761719 3.601562 13.601562 3.761719 13.601562 4 13.601562 4.238281 13.761719 4.398438 14 4.398438zM12.398438 3.601562L11.199219 3.601562 11.199219 1.039062C11.199219.480469 10.71875 0 10.160156 0L1.039062 0C.480469 0 0 .480469 0 1.039062L0 7.761719C0 8.320312.480469 8.800781 1.039062 8.800781L2.800781 8.800781 2.800781 10.28125C2.800781 10.800781 3.199219 11.199219 3.71875 11.199219L5.199219 11.199219 5.199219 12.398438C5.199219 12.640625 5.359375 12.800781 5.601562 12.800781 5.839844 12.800781 6 12.640625 6 12.398438L6 11.199219 7.480469 11.199219C8 11.199219 8.398438 10.800781 8.398438 10.28125L8.398438 8.800781 10.160156 8.800781C10.71875 8.800781 11.199219 8.320312 11.199219 7.761719L11.199219 4.398438 12.398438 4.398438C12.640625 4.398438 12.800781 4.238281 12.800781 4 12.800781 3.761719 12.640625 3.601562 12.398438 3.601562zM7.640625 10.28125C7.640625 10.359375 7.558594 10.398438 7.519531 10.398438L3.71875 10.398438C3.640625 10.398438 3.601562 10.359375 3.601562 10.28125L3.601562 8.800781 7.640625 8.800781zM10.398438 7.761719C10.398438 7.878906 10.28125 8 10.160156 8L1.039062 8C.921875 8 .800781 7.878906.800781 7.761719L.800781 1.039062C.800781.921875.921875.800781 1.039062.800781L10.160156.800781C10.28125.800781 10.398438.921875 10.398438 1.039062zM19.601562 8.398438C19.359375 8.398438 19.199219 8.558594 19.199219 8.800781L19.199219 10C19.199219 10.238281 19.359375 10.398438 19.601562 10.398438 19.839844 10.398438 20 10.238281 20 10L20 8.800781C20 8.558594 19.839844 8.398438 19.601562 8.398438zM19.601562 8.398438"/>
</svg>

<svg xmlns="http://www.w3.org/2000/svg" width="32" height="32" viewBox="0 0 24 24">
    <path d="M8.64 1.602H2.56a.969.969 0 0 0-.957.957v3.68c0 .523.437.96.957.96H8.64c.52 0 .96-.437.96-.96v-3.68a.972.972 0 0 0-.96-.957zm.16 4.636c0 .082-.081.16-.16.16H2.56c-.079 0-.16-.078-.16-.16v-3.68c0-.078.081-.16.16-.16H8.64c.078 0 .16.082.16.16zm0 0M21.441 14.398H15.36c-.52 0-.96.442-.96.961v3.68c0 .52.44.961.96.961h6.082c.52 0 .957-.441.957-.96v-3.68c0-.52-.437-.962-.957-.962zm.16 4.641c0 .082-.081.16-.16.16H15.36c-.078 0-.16-.078-.16-.16v-3.68c0-.078.082-.16.16-.16h6.082c.079 0 .16.082.16.16zm0 0"/>
    <path d="M22.96 12.8H20v-1.198c0-.243-.16-.403-.398-.403-.243 0-.403.16-.403.403V12.8h-5.36c-.558 0-1.038.48-1.038 1.039v6.719c0 .562.48 1.043 1.039 1.043h1.762v1.476c0 .524.398.922.878.922h3.801c.52 0 .918-.398.918-.922v-1.476h1.762c.559 0 1.039-.48 1.039-1.043v-6.72c0-.558-.48-1.038-1.04-1.038zm-2.519 10.278c0 .082-.082.121-.12.121H16.52c-.079 0-.122-.078-.122-.12v-1.477h4.043zm2.758-2.52c0 .122-.12.243-.238.243H13.84c-.121 0-.238-.121-.238-.242v-6.72c0-.12.117-.237.238-.237h9.12c.118 0 .24.117.24.238zm0 0M5.602 15.602c.238 0 .398-.16.398-.403V14c0-.238-.16-.398-.398-.398-.243 0-.403.16-.403.398v1.2c0 .241.16.402.403.402zm0 0M11.602 19.2h-1.204c-.238 0-.398.16-.398.402 0 .238.16.398.398.398h1.204c.238 0 .398-.16.398-.398 0-.243-.16-.403-.398-.403zm0 0M8.8 19.2H7.563A1.967 1.967 0 0 0 6 17.64v-.84c0-.241-.16-.402-.398-.402-.243 0-.403.16-.403.403v.84a1.973 1.973 0 0 0-1.597 1.96c0 1.118.878 2 2 2 .98 0 1.777-.68 1.96-1.601h1.239c.238 0 .398-.16.398-.398 0-.243-.16-.403-.398-.403zm-3.198 1.6a1.18 1.18 0 0 1-1.204-1.198c0-.68.524-1.204 1.204-1.204.68 0 1.199.524 1.199 1.204 0 .68-.52 1.199-1.2 1.199zm0 0M16.8 4.398h.84a1.962 1.962 0 0 0 1.56 1.563v1.238c0 .242.16.403.402.403.238 0 .398-.16.398-.403V5.961A1.976 1.976 0 0 0 21.602 4c0-1.121-.883-2-2-2a1.98 1.98 0 0 0-1.965 1.602H16.8c-.242 0-.403.16-.403.398 0 .238.16.398.403.398zm2.802-1.597c.68 0 1.199.52 1.199 1.199 0 .68-.52 1.2-1.2 1.2A1.18 1.18 0 0 1 18.399 4c0-.68.524-1.2 1.204-1.2zm0 0M14 4.398h1.2c.241 0 .402-.16.402-.398 0-.238-.16-.398-.403-.398H14c-.238 0-.398.16-.398.398 0 .238.16.398.398.398zm0 0M12.398 3.602H11.2V1.039C11.2.48 10.72 0 10.16 0H1.04C.48 0 0 .48 0 1.04v6.722C0 8.32.48 8.8 1.04 8.8H2.8v1.48c0 .52.4.918.919.918h1.48v1.2c0 .242.16.402.403.402.238 0 .398-.16.398-.403V11.2h1.48c.52 0 .918-.398.918-.918v-1.48h1.762c.559 0 1.04-.48 1.04-1.04V4.399h1.198c.243 0 .403-.16.403-.398 0-.238-.16-.398-.403-.398zm-4.757 6.68c0 .077-.082.116-.121.116H3.719c-.078 0-.117-.039-.117-.117v-1.48H7.64zm2.757-2.52c0 .117-.117.238-.238.238H1.04C.921 8 .8 7.879.8 7.762V1.039c0-.117.122-.238.24-.238h9.12c.121 0 .238.12.238.238zm0 0M19.602 8.398c-.243 0-.403.16-.403.403V10c0 .238.16.398.403.398.238 0 .398-.16.398-.398V8.8c0-.241-.16-.402-.398-.402zm0 0"/>
</svg>
